plasma/desktoptheme/Materia/icons/accessories.svg

<svg xmlns="http://www.w3.org/2000/svg" width="32" height="32" version="1.1">
 <g id="22-22-accessories-dictionary" transform="translate(27,37)">
  <rect style="opacity:0.001" width="22" height="22" x="5" y="5"/>
  <g transform="translate(8,-9)">
   <path style="opacity:0.35;fill:#dfdfdf" d="m 0.94,30.75 v -2.19 l 4.22,-1.13 2.34,0.6 2.39,-0.67 3.74,1 v 2.45 z"/>
   <path style="fill:#dfdfdf" d="m 10.03,17.15 c -0.15,0 -0.3,0.01 -0.46,0.03 C 9,17.26 8.32,17.53 7.55,17.94 6.01,17.09 4.81,17.04 3.81,17.3 2.74,17.57 1.87,18.02 0.52,17.98 L 0,17.96 V 32 H 15 V 17.98 L 14.48,18 c -1.51,0.05 -2.27,-0.39 -3.25,-0.68 -0.36,-0.11 -0.76,-0.18 -1.2,-0.17 z m -5.29,0.99 c 0.62,-0.07 1.3,0.08 2.26,0.6 v 8.64 C 5.9,26.75 4.79,26.7 3.82,26.94 3.16,27.1 2.57,27.28 2,27.43 v -8.64 c 0.8,-0.14 1.47,-0.37 2.05,-0.52 0.24,-0.06 0.46,-0.11 0.69,-0.13 z m 5.6,0 c 0.2,0.02 0.4,0.07 0.61,0.14 0.53,0.15 1.19,0.4 2.05,0.55 v 8.6 C 12.43,27.28 11.84,27.09 11.19,26.93 10.21,26.69 9.1,26.75 8,27.41 V 18.8 c 0.7,-0.38 1.25,-0.59 1.68,-0.66 0.24,-0.03 0.45,-0.03 0.66,0 z M 9.8,27.75 c 0.37,-0.01 0.75,0.05 1.15,0.15 0.64,0.16 1.32,0.43 2.05,0.63 V 30 H 2 v -1.46 c 0.72,-0.2 1.41,-0.47 2.05,-0.63 1.08,-0.27 2,-0.3 3.15,0.74 l 0.34,0.3 0.33,-0.31 C 8.57,28 9.18,27.77 9.8,27.75 Z"/>
  </g>
 </g>
 <g id="accessories-dictionary" transform="translate(0,32)">
  <rect style="opacity:0.001" width="32" height="32" x="0" y="0"/>
  <g transform="translate(-2e-4,5e-6)">
   <rect style="fill:#e4e4e4" width="28" height="28" x="-30" y="-30" rx="1.4" ry="1.4" transform="matrix(0,-1,-1,0,0,0)"/>
   <path style="opacity:0.1" d="M 30,28.6 V 3.4 C 30,2.6244 29.376,2 28.6,2 H 16 v 28 h 12.6 c 0.7756,0 1.4,-0.6244 1.4,-1.4 z"/>
   <path style="opacity:0.2;fill:#ffffff" d="M 3.4004,2 C 2.6248,2 2,2.6248 2,3.4004 v 1 C 2,3.6248 2.6248,3 3.4004,3 h 25.2 c 0.775,0 1.4,0.6248 1.4,1.4004 v -1 C 30.0004,2.6248 29.3754,2 28.6004,2 Z"/>
   <path style="opacity:0.2" d="m 2,28.6 v 1 C 2,30.375 2.6248,31 3.4004,31 h 25.2 c 0.775,0 1.4,-0.625 1.4,-1.4 v -1 c 0,0.775 -0.625,1.4 -1.4,1.4 h -25.2 c -0.7752,0 -1.4,-0.625 -1.4,-1.4 z"/>
   <path style="fill:#c2352a" d="M 12.8,1 C 12,1 12,1.6857 12,1.6857 v 11.314 l 2,-1 2,1 V 1.6857 C 16,0.99999 15.19999,0.99999 15.19999,0.99999 Z"/>
  </g>
 </g>
 <g id="accessories-calculator">
  <rect style="opacity:0.001" width="32" height="32" x="0" y="0"/>
  <g>
   <path style="opacity:0.2" d="m 3.5,3 h 25 C 29.331,3 30,3.669 30,4.5 v 17.839157 l -2.517986,4.745632 c -0.38949,0.73407 -0.827994,1.011155 -1.5,1.5 L 22.661871,31 H 3.5 C 2.669,31 2,30.331 2,29.5 V 4.5 C 2,3.669 2.669,3 3.5,3 Z"/>
   <path style="fill:#666666" d="m 30,16 v 6.647482 l -1.541624,4.824769 c -0.252926,0.791574 -0.634728,1.53776 -1.448612,1.70555 L 23.021583,30 H 15 V 16 Z"/>
   <path style="fill:#8c8c8c" d="M 2,15 V 28.5 C 2,29.331 2.669,30 3.5,30 H 16 V 15 Z"/>
   <path style="fill:#a6a6a6" d="M 3.5,2 C 2.669,2 2,2.669 2,3.5 V 16 H 17 V 2 Z"/>
   <path style="fill:#595959" d="M 28.5,2 C 29.331,2 30,2.669 30,3.5 V 16 H 16 V 2 Z"/>
   <path style="opacity:0.2;fill:#ffffff" d="M 3.5,2 C 2.669,2 2,2.669 2,3.5 v 1 C 2,3.669 2.669,3 3.5,3 h 25 C 29.331,3 30,3.669 30,4.5 v -1 C 30,2.669 29.331,2 28.5,2 Z"/>
   <circle style="opacity:0.2" cx="23" cy="24" r="8"/>
   <circle style="fill:#07ce8e" cx="23" cy="23" r="8"/>
   <path style="opacity:0.2" d="m 9,7.000484 v 3 H 6 v 1 h 3 v 3 h 1 v -3 h 3 v -1 h -3 v -3 z m 11,3 v 1 h 6 v -1 z M 6.3535156,20.646968 5.6464844,21.354 8.2929688,24.000484 5.6464844,26.646968 6.3535156,27.354 9,24.707515 11.646484,27.354 12.353516,26.646968 9.7070312,24.000484 12.353516,21.354 11.646484,20.646968 9,23.293453 Z"/>
   <path style="fill:#ffffff" d="M 9,6 V 9 H 6 v 1 h 3 v 3 h 1 v -3 h 3 V 9 H 10 V 6 Z m 11,3 v 1 h 6 V 9 Z M 6.3535156,19.646484 5.6464844,20.353516 8.2929688,23 5.6464844,25.646484 6.3535156,26.353516 9,23.707031 11.646484,26.353516 12.353516,25.646484 9.7070312,23 12.353516,20.353516 11.646484,19.646484 9,22.292969 Z"/>
   <path style="fill:#ffffff" d="m 20,21 v 1 h 6 v -1 z m 0,3 v 1 h 6 v -1 z"/>
  </g>
 </g>
 <g id="22-22-accessories-calculator">
  <rect style="opacity:0.001" width="22" height="22" x="32" y="10"/>
  <path style="fill:#dfdfdf" d="m 38,13 c 0,0 -2,0 -2,2 v 11 c 0,0 0,2 2,2 h 11 c 0,0 2,0 2,-2 V 15 c 0,-2 -2,-2 -2,-2 z m 0,2 H 38.84 43 v 5 H 38 V 16.41 16 Z m 6,0 h 5 v 5 h -5 z m 1.44,1 c -0.34,0.08 -0.54,0.58 -0.28,0.84 l 0.65,0.66 -0.65,0.66 c -0.26,0.15 -0.31,0.56 -0.1,0.78 0.22,0.21 0.63,0.16 0.78,-0.1 l 0.66,-0.65 0.66,0.65 c 0.15,0.26 0.56,0.31 0.78,0.1 0.21,-0.22 0.16,-0.63 -0.1,-0.78 l -0.65,-0.66 0.65,-0.66 c 0.26,-0.23 0.15,-0.73 -0.18,-0.84 -0.02,0 -0.05,0 -0.07,0 -0.16,-0.02 -0.32,0.04 -0.43,0.16 L 46.5,16.81 45.84,16.16 C 45.78,16.08 45.69,16.03 45.59,16 45.54,15.99 45.49,15.99 45.44,16 Z M 39,17 v 1 h 1 1 1 v -1 h -1 -1 z m -1,4 h 5 v 5 H 38.84 38 v -1 z m 6,0 h 5 v 4 1 h -5 z m -4,1 v 1 h -1 v 1 h 1 v 1 h 1 v -1 h 1 v -1 h -1 v -1 z m 5,0 v 1 h 3 v -1 z m 0,2 v 1 h 3 v -1 z"/>
 </g>
</svg>

<?xml version="1.0" encoding="UTF-8"?>
<svg width="32" height="32" version="1.1" xmlns="http://www.w3.org/2000/svg">
 <g id="22-22-accessories-dictionary" transform="translate(27,37)">
  <rect x="5" y="5" width="22" height="22" opacity=".001"/>
  <g transform="translate(8,-9)" fill="#dfdfdf">
   <path d="m0.94 30.75v-2.19l4.22-1.13 2.34 0.6 2.39-0.67 3.74 1v2.45z" opacity=".35"/>
   <path d="m10.03 17.15c-0.15 0-0.3 0.01-0.46 0.03-0.57 0.08-1.25 0.35-2.02 0.76-1.54-0.85-2.74-0.9-3.74-0.64-1.07 0.27-1.94 0.72-3.29 0.68l-0.52-0.02v14.04h15v-14.02l-0.52 0.02c-1.51 0.05-2.27-0.39-3.25-0.68-0.36-0.11-0.76-0.18-1.2-0.17zm-5.29 0.99c0.62-0.07 1.3 0.08 2.26 0.6v8.64c-1.1-0.63-2.21-0.68-3.18-0.44-0.66 0.16-1.25 0.34-1.82 0.49v-8.64c0.8-0.14 1.47-0.37 2.05-0.52 0.24-0.06 0.46-0.11 0.69-0.13zm5.6 0c0.2 0.02 0.4 0.07 0.61 0.14 0.53 0.15 1.19 0.4 2.05 0.55v8.6c-0.57-0.15-1.16-0.34-1.81-0.5-0.98-0.24-2.09-0.18-3.19 0.48v-8.61c0.7-0.38 1.25-0.59 1.68-0.66 0.24-0.03 0.45-0.03 0.66 0zm-0.54 9.61c0.37-0.01 0.75 0.05 1.15 0.15 0.64 0.16 1.32 0.43 2.05 0.63v1.47h-11v-1.46c0.72-0.2 1.41-0.47 2.05-0.63 1.08-0.27 2-0.3 3.15 0.74l0.34 0.3 0.33-0.31c0.7-0.64 1.31-0.87 1.93-0.89z"/>
  </g>
 </g>
 <g id="accessories-dictionary" transform="translate(0,32)">
  <rect width="32" height="32" opacity=".001"/>
  <g transform="translate(-2e-4,5e-6)">
   <rect transform="matrix(0,-1,-1,0,0,0)" x="-30" y="-30" width="28" height="28" rx="1.4" ry="1.4" fill="#e4e4e4"/>
   <path d="m30 28.6v-25.2c0-0.7756-0.624-1.4-1.4-1.4h-12.6v28h12.6c0.7756 0 1.4-0.6244 1.4-1.4z" opacity=".1"/>
   <path d="M 3.4004,2 C 2.6248,2 2,2.6248 2,3.4004 v 1 C 2,3.6248 2.6248,3 3.4004,3 h 25.2 c 0.775,0 1.4,0.6248 1.4,1.4004 v -1 C 30.0004,2.6248 29.3754,2 28.6004,2 Z" fill="#fff" opacity=".2"/>
   <path d="m2 28.6v1c0 0.775 0.6248 1.4 1.4004 1.4h25.2c0.775 0 1.4-0.625 1.4-1.4v-1c0 0.775-0.625 1.4-1.4 1.4h-25.2c-0.7752 0-1.4-0.625-1.4-1.4z" opacity=".2"/>
   <path d="m12.8 1c-0.8 0-0.8 0.6857-0.8 0.6857v11.314l2-1 2 1v-11.314c0-0.68571-0.80001-0.68571-0.80001-0.68571z" fill="#c2352a"/>
  </g>
 </g>
 <g id="accessories-calculator">
  <rect width="32" height="32" opacity=".001"/>
  <path d="m3.5 3h25c0.831 0 1.5 0.669 1.5 1.5v17.839l-2.518 4.7456c-0.38949 0.73407-0.82799 1.0112-1.5 1.5l-3.3201 2.4152h-19.162c-0.831 0-1.5-0.669-1.5-1.5v-25c0-0.831 0.669-1.5 1.5-1.5z" opacity=".2"/>
  <path d="m30 16v6.6475l-1.5416 4.8248c-0.25293 0.79157-0.63473 1.5378-1.4486 1.7056l-3.9882 0.8222h-8.0216v-14z" fill="#666"/>
  <path d="m2 15v13.5c0 0.831 0.669 1.5 1.5 1.5h12.5v-15z" fill="#8c8c8c"/>
  <path d="m3.5 2c-0.831 0-1.5 0.669-1.5 1.5v12.5h15v-14z" fill="#a6a6a6"/>
  <path d="m28.5 2c0.831 0 1.5 0.669 1.5 1.5v12.5h-14v-14z" fill="#595959"/>
  <path d="m3.5 2c-0.831 0-1.5 0.669-1.5 1.5v1c0-0.831 0.669-1.5 1.5-1.5h25c0.831 0 1.5 0.669 1.5 1.5v-1c0-0.831-0.669-1.5-1.5-1.5z" fill="#fff" opacity=".2"/>
  <circle cx="23" cy="24" r="8" opacity=".2"/>
  <circle cx="23" cy="23" r="8" fill="#07ce8e"/>
  <path d="m9 7.0005v3h-3v1h3v3h1v-3h3v-1h-3v-3zm11 3v1h6v-1zm-13.646 10.646-0.70703 0.70703 2.6465 2.6465-2.6465 2.6465 0.70703 0.70703 2.6465-2.6465 2.6465 2.6465 0.70703-0.70703-2.6465-2.6465 2.6465-2.6465-0.70703-0.70703-2.6465 2.6465z" opacity=".2"/>
  <path d="m9 6v3h-3v1h3v3h1v-3h3v-1h-3v-3zm11 3v1h6v-1zm-13.646 10.646-0.70703 0.70703 2.6465 2.6465-2.6465 2.6465 0.70703 0.70703 2.6465-2.6465 2.6465 2.6465 0.70703-0.70703-2.6465-2.6465 2.6465-2.6465-0.70703-0.70703-2.6465 2.6465z" fill="#fff"/>
  <path d="m20 21v1h6v-1zm0 3v1h6v-1z" fill="#fff"/>
 </g>
 <g id="22-22-accessories-calculator">
  <rect x="32" y="10" width="22" height="22" opacity=".001"/>
  <path d="m38 13s-2 0-2 2v11s0 2 2 2h11s2 0 2-2v-11c0-2-2-2-2-2zm0 2h5v5h-5v-4zm6 0h5v5h-5zm1.44 1c-0.34 0.08-0.54 0.58-0.28 0.84l0.65 0.66-0.65 0.66c-0.26 0.15-0.31 0.56-0.1 0.78 0.22 0.21 0.63 0.16 0.78-0.1l0.66-0.65 0.66 0.65c0.15 0.26 0.56 0.31 0.78 0.1 0.21-0.22 0.16-0.63-0.1-0.78l-0.65-0.66 0.65-0.66c0.26-0.23 0.15-0.73-0.18-0.84h-0.07c-0.16-0.02-0.32 0.04-0.43 0.16l-0.66 0.65-0.66-0.65c-0.06-0.08-0.15-0.13-0.25-0.16-0.05-0.01-0.1-0.01-0.15 0zm-6.44 1v1h3v-1h-2zm-1 4h5v5h-5v-1zm6 0h5v5h-5zm-4 1v1h-1v1h1v1h1v-1h1v-1h-1v-1zm5 0v1h3v-1zm0 2v1h3v-1z" fill="#dfdfdf"/>
 </g>
</svg>
